public/avatar/hat/257.svg

<svg xmlns:xlink="http://www.w3.org/1999/xlink" height="92.9" width="100.7" xmlns="http://www.w3.org/2000/svg"><use height="19.15" transform="translate(34.6 38.55)" width="20.6" xlink:href="#a"/><defs><g id="a" fill-rule="evenodd"><path d="M10.75 5.15q0-2.75 2.9-2.75t2.9 2.75q0 2.75-2.9 2.75t-2.9-2.75" fill="#4f0000" transform="translate(4.05 11.2)"/><path d="M15.4 5.15q0 1.65-1.75 1.65T11.9 5.15q0-1.65 1.75-1.65t1.75 1.65" fill="#910000" transform="translate(4.05 11.2)"/><path d="M11.7 5q0-1.35 1.4-1.35 1.45 0 1.45 1.35 0 1.4-1.45 1.4-1.4 0-1.4-1.4" fill="#4f0000" transform="translate(4.05 11.2)"/><path d="M13.95 5q0 .8-.85.8-.8 0-.8-.8 0-.75.8-.75.85 0 .85.75" fill="#fff" transform="translate(4.05 11.2)"/><path d="M4-4.7q.95-.7 3-6.1.15-.4.6-.4l1.55.1q1.5.25 2.15 1l.15.45-.05.1q-1.25 4.15-1.4 6v.45l3.45 5.15q.55.75-.65 4.65l-.1.15q-2.4 2.45-10.5-.5Q-4 4.25-4.05 1.5v-.05L-4 1.3l1.75-4Q-.7-3.8 4-4.7" fill="#4f0000" transform="translate(4.05 11.2)"/><path d="m8.75-2.75 3.6 5.5-.2 1.65-.5 1.6q-1.7 1.6-8-.45Q-2.6 3.5-2.7 1.5l1.3-3.2 2.9-1.05 3.35-.9q1.15-.8 3.2-6.3l2 .5q-1.6 4.75-1.3 6.7" fill="#d80000" transform="translate(4.05 11.2)"/><path d="m7-3 2.1-6.85.95.4q-1.6 4.75-1.3 6.7l3.6 5.5-.2 1.65-.5 1.6q-.75.7-2.95.6l.6-2.95L7-3" fill="#910000" transform="translate(4.05 11.2)"/><path d="M-1.8-2.35q.65-.1.75.55Q-.7.7 6.8 2.45l5.45.25q.5-.5.9-.15.55.5.15.9-1.1 1.6-6.8.25-8.3-1.95-8.85-5.3-.1-.65.55-.75m6.25-2.6q.65-.2.75.5.15.5 1.45.95 1.6.65 2.25.35l.9.1q.4.5 0 .8-.85.85-2.95.2-2.55-.75-2.9-2.1-.1-.65.5-.8" fill="#4f0000" transform="translate(4.05 11.2)"/><path d="M1.45-2.25 3.8-3.1q.25.2-.65.7L.65-.55q-.95-.7-1-1.25l1.8-.45m-3.4 2.4h.05q.6.2.8.7.2.55-.5 1.6-.7-.45-.8-.85l.45-1.45m7.5-4.5H5.5l1.3-2.2L7.85-9l.3.15Q7.45-6.5 6-4.1l-.45-.25" fill="#f47676" transform="translate(4.05 11.2)"/></g></defs></svg>

<?xml version="1.0" encoding="UTF-8" standalone="no"?>
<svg xmlns:xlink="http://www.w3.org/1999/xlink" height="92.9px" width="100.7px" xmlns="http://www.w3.org/2000/svg">
  <g transform="matrix(1.0, 0.0, 0.0, 1.0, 38.65, 49.75)">
    <use height="19.15" transform="matrix(1.0, 0.0, 0.0, 1.0, -4.05, -11.2)" width="20.6" xlink:href="#shape0"/>
  </g>
  <defs>
    <g id="shape0" transform="matrix(1.0, 0.0, 0.0, 1.0, 4.05, 11.2)">
      <path d="M10.75 5.15 Q10.75 2.4 13.65 2.4 16.55 2.4 16.55 5.15 16.55 7.9 13.65 7.9 10.75 7.9 10.75 5.15" fill="#4f0000" fill-rule="evenodd" stroke="none"/>
      <path d="M15.4 5.15 Q15.4 6.8 13.65 6.8 11.9 6.8 11.9 5.15 11.9 3.5 13.65 3.5 15.4 3.5 15.4 5.15" fill="#910000" fill-rule="evenodd" stroke="none"/>
      <path d="M11.7 5.0 Q11.7 3.65 13.1 3.65 14.55 3.65 14.55 5.0 14.55 6.4 13.1 6.4 11.7 6.4 11.7 5.0" fill="#4f0000" fill-rule="evenodd" stroke="none"/>
      <path d="M13.95 5.0 Q13.95 5.8 13.1 5.8 12.3 5.8 12.3 5.0 12.3 4.25 13.1 4.25 13.95 4.25 13.95 5.0" fill="#ffffff" fill-rule="evenodd" stroke="none"/>
      <path d="M4.0 -4.7 Q4.95 -5.4 7.0 -10.8 7.15 -11.2 7.6 -11.2 L9.15 -11.1 Q10.65 -10.85 11.3 -10.1 L11.45 -9.65 11.4 -9.55 Q10.15 -5.4 10.0 -3.55 L10.0 -3.1 13.45 2.05 Q14.0 2.8 12.8 6.7 L12.7 6.85 Q10.3 9.3 2.2 6.35 -4.0 4.25 -4.05 1.5 L-4.05 1.45 -4.0 1.3 -2.25 -2.7 Q-0.7 -3.8 4.0 -4.7" fill="#4f0000" fill-rule="evenodd" stroke="none"/>
      <path d="M8.75 -2.75 L12.35 2.75 12.15 4.4 11.65 6.0 Q9.95 7.6 3.65 5.55 -2.6 3.5 -2.7 1.5 L-1.4 -1.7 1.5 -2.75 4.85 -3.65 Q6.0 -4.45 8.05 -9.95 L10.05 -9.45 Q8.45 -4.7 8.75 -2.75" fill="#d80000" fill-rule="evenodd" stroke="none"/>
      <path d="M7.0 -3.0 L9.1 -9.85 10.05 -9.45 Q8.45 -4.7 8.75 -2.75 L12.35 2.75 12.15 4.4 11.65 6.0 Q10.9 6.7 8.7 6.6 L9.3 3.65 7.0 -3.0" fill="#910000" fill-rule="evenodd" stroke="none"/>
      <path d="M-1.8 -2.35 Q-1.15 -2.45 -1.05 -1.8 -0.7 0.7 6.8 2.45 L12.25 2.7 Q12.75 2.2 13.15 2.55 13.7 3.05 13.3 3.45 12.2 5.05 6.5 3.7 -1.8 1.75 -2.35 -1.6 -2.45 -2.25 -1.8 -2.35" fill="#4f0000" fill-rule="evenodd" stroke="none"/>
      <path d="M4.45 -4.95 Q5.1 -5.15 5.2 -4.45 5.35 -3.95 6.65 -3.5 8.25 -2.85 8.9 -3.15 L9.8 -3.05 Q10.2 -2.55 9.8 -2.25 8.95 -1.4 6.85 -2.05 4.3 -2.8 3.95 -4.15 3.85 -4.8 4.45 -4.95" fill="#4f0000" fill-rule="evenodd" stroke="none"/>
      <path d="M1.45 -2.25 L3.8 -3.1 Q4.05 -2.9 3.15 -2.4 L0.65 -0.55 Q-0.3 -1.25 -0.35 -1.8 L1.45 -2.25" fill="#f47676" fill-rule="evenodd" stroke="none"/>
      <path d="M-1.95 0.15 L-1.9 0.15 Q-1.3 0.35 -1.1 0.85 -0.9 1.4 -1.6 2.45 -2.3 2.0 -2.4 1.6 L-1.95 0.15" fill="#f47676" fill-rule="evenodd" stroke="none"/>
      <path d="M5.55 -4.35 L5.5 -4.35 6.8 -6.55 7.85 -9.0 8.15 -8.85 Q7.45 -6.5 6.0 -4.1 L5.55 -4.35" fill="#f47676" fill-rule="evenodd" stroke="none"/>
    </g>
  </defs>
</svg>
